X:53
T:Far, Far Away On Judea's Plains
%%stretchlast false
M:4/4
L:1/4
K:Eb clef=C1
"^i"[E,E] [B,,E]3/4 "^V"[B,,DF]/4 "^I"[E,EG] "^I²"[B,,EG]3/4 "^♯iii"[B,,FA]/4 | "^iii"[G,,GB] "^iii¹"[B,,GB]3/4 "^♯iii"[B,,FA]/4 "^I"[E,EG]2 | "^V"[B,,DF] [B,,DF]3/4 "^I²"[B,,EG]/4 "^♯iii"[B,,FA] "^I"[E,EG]/ [E,GB]/ | "^vi+"[A,,Ac]/ "^♯iii"[A,,GB]/ [A,,FA]/ "^i¹"[A,,EG]/ "^I²"[B,,EG] "^V"[B,,DF] | "^I"[E,G,B,E] "^I¹"[G,B,E]3/4 "^V²"[F,B,DF]/4 "^I"[E,B,EG] "^iii"[D,G]/ "^vi"[C,G]/ | "^V"[B,,F,DB] [B,,F,DB]3/4 "^V7"[B,,F,DA]/4 "^I"[E,EG] "^iii"[F,G]/ [G,G]/ | "^IV"[A,,A,Ec]3/4 [B,,A,Ec]/4 "^IV¹"[C,A,Ec]3/4 [D,A,Ec]/4 "^I"[E,G,EB] "^IV"[A,CE]/ "^I¹"[G,B,E]/ | "^ii"[F,A,CA]/ [F,A,DA]/ "^I"[E,B,EG] "^V"[B,,B,DF]2 | "^I"[E,,G,B,E] [E,,E,G,B,] "^IV"[A,,E,A,C] "^vii°¹"[F,,F,A,D] | "^I¹"[G,,E,B,E] "^V"[B,,D,B,F] "^I"[E,B,G]2 | "^V"[B,,F,DB]/ "^vi"[C,F,EB]/ "^V¹"[D,F,FB]/ "^V"[B,,F,DB]/ "^I"[E,G,EB]/ "^i"[F,A,EB]/ "^I¹"[G,B,EB]/ "^ii¹"[A,CFA]/ | "^I²"[B,EG] "^V"[B,,B,DF]/ "^V7"[B,,A,DF]/ "^I"[E,G,E]2 |]
